icons/currency-fill.svg

<svg viewBox="0 0 24 24" fill="currentColor" xmlns="http://www.w3.org/2000/svg"><path d="M17.0047 16.0028H19.0047V4.00281H9.00468V6.00281H17.0047V16.0028ZM17.0047 18.0028V21.0019C17.0047 21.5547 16.5547 22.0028 15.9978 22.0028H4.01154C3.45548 22.0028 3.00488 21.5582 3.00488 21.0019L3.00748 7.00368C3.00759 6.45091 3.45752 6.00281 4.0143 6.00281H7.00468V3.00281C7.00468 2.45052 7.4524 2.00281 8.00468 2.00281H20.0047C20.557 2.00281 21.0047 2.45052 21.0047 3.00281V17.0028C21.0047 17.5551 20.557 18.0028 20.0047 18.0028H17.0047ZM7.00468 16.0028V18.0028H9.00468V19.0028H11.0047V18.0028H11.5047C12.8854 18.0028 14.0047 16.8835 14.0047 15.5028C14.0047 14.1221 12.8854 13.0028 11.5047 13.0028H8.50468C8.22854 13.0028 8.00468 12.7789 8.00468 12.5028C8.00468 12.2267 8.22854 12.0028 8.50468 12.0028H13.0047V10.0028H11.0047V9.00281H9.00468V10.0028H8.50468C7.12397 10.0028 6.00468 11.1221 6.00468 12.5028C6.00468 13.8835 7.12397 15.0028 8.50468 15.0028H11.5047C11.7808 15.0028 12.0047 15.2267 12.0047 15.5028C12.0047 15.7789 11.7808 16.0028 11.5047 16.0028H7.00468Z"/></svg>

<svg xmlns="http://www.w3.org/2000/svg" viewBox="0 0 24 24">
    <g>
        <path fill="none" d="M0 0h24v24H0z"/>
        <path d="M17 16h2V4H9v2h8v10zm0 2v3c0 .552-.45 1-1.007 1H4.007A1.001 1.001 0 0 1 3 21l.003-14c0-.552.45-1 1.007-1H7V3a1 1 0 0 1 1-1h12a1 1 0 0 1 1 1v14a1 1 0 0 1-1 1h-3zM7 16v2h2v1h2v-1h.5a2.5 2.5 0 1 0 0-5h-3a.5.5 0 1 1 0-1H13v-2h-2V9H9v1h-.5a2.5 2.5 0 1 0 0 5h3a.5.5 0 1 1 0 1H7z"/>
    </g>
</svg>
